packages/vibrant-icons/assets/icons/TextAlignRight/Thin.svg

<svg width="24" height="24" viewBox="0 0 24 24" fill="none" xmlns="http://www.w3.org/2000/svg">
<path d="M10.3999 8.6499H21.5999V10.3499H10.3999V8.6499Z" fill="#0C0C0C"/>
<path d="M2.3999 3.6499H21.5999V5.3499H2.3999V3.6499Z" fill="#0C0C0C"/>
<path d="M2.3999 13.6499H21.5999V15.3499H2.3999V13.6499Z" fill="#0C0C0C"/>
<path d="M10.3999 18.6499H21.5999V20.3499H10.3999V18.6499Z" fill="#0C0C0C"/>
</svg>

<svg xmlns="http://www.w3.org/2000/svg" width="24" height="24" fill="none"><path fill="#0C0C0C" d="M10.4 8.65h11.2v1.7H10.4zm-8-5h19.2v1.7H2.4zm0 10h19.2v1.7H2.4zm8 5h11.2v1.7H10.4z"/></svg>
